X: 43071
T: Wind That Shakes The Barley, The
R: reel
M: 4/4
K: Dmajor
A3A2 DFA|BAGA B2 dB|ADED A3g|fded BddB|
ADED ADED|BAGA B2dB|ADED A3g|fded Bdde|
f2ffg2fg|fedf e2de|fdfd a3a|afed Bdde|
f2ffg2fg|fedf e2de|fdfd a3a|afed BddB|

